Numix-Circle/48x48/apps/dianara.svg

<?xml version="1.0" encoding="UTF-8" standalone="no"?>
<svg
   xmlns:dc="http://purl.org/dc/elements/1.1/"
   xmlns:cc="http://creativecommons.org/ns#"
   xmlns:rdf="http://www.w3.org/1999/02/22-rdf-syntax-ns#"
   xmlns:svg="http://www.w3.org/2000/svg"
   xmlns="http://www.w3.org/2000/svg"
   xmlns:xlink="http://www.w3.org/1999/xlink"
   xmlns:sodipodi="http://sodipodi.sourceforge.net/DTD/sodipodi-0.dtd"
   xmlns:inkscape="http://www.inkscape.org/namespaces/inkscape"
   viewBox="0 0 48 48"
   id="svg2"
   version="1.1"
   inkscape:version="0.91 r13725"
   sodipodi:docname="dianara0.svg">
  <metadata
     id="metadata97">
    <rdf:RDF>
      <cc:Work
         rdf:about="">
        <dc:format>image/svg+xml</dc:format>
        <dc:type
           rdf:resource="http://purl.org/dc/dcmitype/StillImage" />
        <dc:title></dc:title>
      </cc:Work>
    </rdf:RDF>
  </metadata>
  <sodipodi:namedview
     pagecolor="#ffffff"
     bordercolor="#666666"
     borderopacity="1"
     objecttolerance="10"
     gridtolerance="10"
     guidetolerance="10"
     inkscape:pageopacity="0"
     inkscape:pageshadow="2"
     inkscape:window-width="1366"
     inkscape:window-height="715"
     id="namedview95"
     showgrid="false"
     inkscape:zoom="1"
     inkscape:cx="28.149793"
     inkscape:cy="24.695919"
     inkscape:window-x="0"
     inkscape:window-y="28"
     inkscape:window-maximized="1"
     inkscape:current-layer="svg2">
    <inkscape:grid
       type="xygrid"
       id="grid4244" />
  </sodipodi:namedview>
  <defs
     id="defs4">
    <linearGradient
       inkscape:collect="always"
       id="linearGradient4322">
      <stop
         style="stop-color:#144072;stop-opacity:1"
         offset="0"
         id="stop4324" />
      <stop
         style="stop-color:#174a83;stop-opacity:1"
         offset="1"
         id="stop4326" />
    </linearGradient>
    <linearGradient
       inkscape:collect="always"
       id="linearGradient4314">
      <stop
         style="stop-color:#0b2f59;stop-opacity:1"
         offset="0"
         id="stop4316" />
      <stop
         style="stop-color:#0d386b;stop-opacity:1"
         offset="1"
         id="stop4318" />
    </linearGradient>
    <linearGradient
       inkscape:collect="always"
       id="linearGradient4306">
      <stop
         style="stop-color:#3d76b0;stop-opacity:1"
         offset="0"
         id="stop4308" />
      <stop
         style="stop-color:#427fbe;stop-opacity:1"
         offset="1"
         id="stop4310" />
    </linearGradient>
    <linearGradient
       inkscape:collect="always"
       xlink:href="#linearGradient4306"
       id="linearGradient4312"
       x1="47"
       y1="47"
       x2="47"
       y2="1"
       gradientUnits="userSpaceOnUse" />
    <linearGradient
       inkscape:collect="always"
       xlink:href="#linearGradient4314"
       id="linearGradient4320"
       x1="47"
       y1="47"
       x2="47"
       y2="1"
       gradientUnits="userSpaceOnUse" />
    <linearGradient
       inkscape:collect="always"
       xlink:href="#linearGradient4322"
       id="linearGradient4328"
       x1="1"
       y1="47"
       x2="1"
       y2="1"
       gradientUnits="userSpaceOnUse" />
  </defs>
  <g
     id="g21">
    <path
       d="m 36.31 5 c 5.859 4.062 9.688 10.831 9.688 18.5 c 0 12.426 -10.07 22.5 -22.5 22.5 c -7.669 0 -14.438 -3.828 -18.5 -9.688 c 1.037 1.822 2.306 3.499 3.781 4.969 c 4.085 3.712 9.514 5.969 15.469 5.969 c 12.703 0 23 -10.298 23 -23 c 0 -5.954 -2.256 -11.384 -5.969 -15.469 c -1.469 -1.475 -3.147 -2.744 -4.969 -3.781 z m 4.969 3.781 c 3.854 4.113 6.219 9.637 6.219 15.719 c 0 12.703 -10.297 23 -23 23 c -6.081 0 -11.606 -2.364 -15.719 -6.219 c 4.16 4.144 9.883 6.719 16.219 6.719 c 12.703 0 23 -10.298 23 -23 c 0 -6.335 -2.575 -12.06 -6.719 -16.219 z"
       opacity="0.05"
       id="path23" />
    <path
       d="m 41.28 8.781 c 3.712 4.085 5.969 9.514 5.969 15.469 c 0 12.703 -10.297 23 -23 23 c -5.954 0 -11.384 -2.256 -15.469 -5.969 c 4.113 3.854 9.637 6.219 15.719 6.219 c 12.703 0 23 -10.298 23 -23 c 0 -6.081 -2.364 -11.606 -6.219 -15.719 z"
       opacity="0.1"
       id="path25" />
    <path
       d="m 31.25 2.375 c 8.615 3.154 14.75 11.417 14.75 21.13 c 0 12.426 -10.07 22.5 -22.5 22.5 c -9.708 0 -17.971 -6.135 -21.12 -14.75 a 23 23 0 0 0 44.875 -7 a 23 23 0 0 0 -16 -21.875 z"
       opacity="0.2"
       id="path27" />
  </g>
  <g
     id="g29">
    <path
       style="fill:url(#linearGradient4328);fill-opacity:1"
       d="M 18.849609,1.5859375 C 8.6279477,3.9255305 1,13.068713 1,24 1,32.852775 6.0047972,40.532111 13.335938,44.376953 27.86778,40.171911 41.553909,35.07887 46.808594,21.132812 c -0.01186,-0.09441 -0.01639,-0.191065 -0.0293,-0.285156 C 39.167068,13.557545 35.387452,4.3043908 18.849609,1.5859375 Z"
       id="path4289"
       inkscape:connector-curvature="0"
       sodipodi:nodetypes="cscccc" />
    <path
       style="fill:url(#linearGradient4320);fill-opacity:1"
       d="M 46.814453 21.128906 L 13.335938 44.376953 C 16.524378 46.049142 20.149775 47 24 47 C 36.703 47 47 36.703 47 24 C 47 23.026775 46.931785 22.070337 46.814453 21.128906 z "
       id="path31" />
    <path
       style="fill:url(#linearGradient4312);fill-opacity:1"
       d="M 24 1 C 22.228287 1 20.506309 1.2067426 18.849609 1.5859375 L 46.779297 20.847656 C 45.241696 9.6374595 35.632752 1 24 1 z "
       id="path4302" />
  </g>
  <g
     id="g33" />
  <path
     sodipodi:nodetypes="zcccczzsccsz"
     inkscape:connector-curvature="0"
     id="path4338"
     style="font-style:normal;font-variant:normal;font-weight:bold;font-stretch:normal;font-size:12.30313683px;line-height:125%;font-family:'Open Sans';-inkscape-font-specification:'Open Sans Bold';letter-spacing:0px;word-spacing:0px;fill:#000000;fill-opacity:0.09803922;stroke:none;stroke-width:1px;stroke-linecap:butt;stroke-linejoin:miter;stroke-opacity:1"
     d="m 29,22 c 0,7 -3.999999,10 -8.000001,10 L 14,32 14,12 21.000001,12 C 25.000001,12 29,15 29,22 Z m -3,0 c 0,-4 -1.95,-7 -5.2,-7 l -3.8,0 0,14 3.8,0 c 3.333334,0 5.2,-3 5.2,-7 z" />
  <g
     id="g91">
    <path
       d="m 40.03 7.531 c 3.712 4.084 5.969 9.514 5.969 15.469 0 12.703 -10.297 23 -23 23 c -5.954 0 -11.384 -2.256 -15.469 -5.969 4.178 4.291 10.01 6.969 16.469 6.969 c 12.703 0 23 -10.298 23 -23 0 -6.462 -2.677 -12.291 -6.969 -16.469 z"
       opacity="0.1"
       id="path93" />
  </g>
  <path
     d="m 28,21 c 0,7 -3.999999,10 -8.000001,10 L 13,31 13,11 20.000001,11 C 24.000001,11 28,14 28,21 Z m -3,0 c 0,-4 -1.95,-7 -5.2,-7 l -3.8,0 0,14 3.8,0 c 3.333334,0 5.2,-3 5.2,-7 z"
     style="font-style:normal;font-variant:normal;font-weight:bold;font-stretch:normal;font-size:12.30313683px;line-height:125%;font-family:'Open Sans';-inkscape-font-specification:'Open Sans Bold';letter-spacing:0px;word-spacing:0px;fill:#e6ef5d;fill-opacity:1;stroke:none;stroke-width:1px;stroke-linecap:butt;stroke-linejoin:miter;stroke-opacity:1"
     id="path4161-2"
     inkscape:connector-curvature="0"
     sodipodi:nodetypes="zcccczzsccsz" />
</svg>

<svg xmlns="http://www.w3.org/2000/svg" viewBox="0 0 48 48">
 <defs>
  <linearGradient id="linearGradient4312" y1="47" x2="0" y2="1" gradientUnits="userSpaceOnUse">
   <stop style="stop-color:#3d76b0;stop-opacity:1"/>
   <stop offset="1" style="stop-color:#427fbe;stop-opacity:1"/>
  </linearGradient>
  <linearGradient id="linearGradient4320" y1="47" x2="0" y2="1" gradientUnits="userSpaceOnUse">
   <stop style="stop-color:#0b2f59;stop-opacity:1"/>
   <stop offset="1" style="stop-color:#0d386b;stop-opacity:1"/>
  </linearGradient>
  <linearGradient id="linearGradient4328" y1="47" x2="0" y2="1" gradientUnits="userSpaceOnUse">
   <stop style="stop-color:#144072;stop-opacity:1"/>
   <stop offset="1" style="stop-color:#174a83;stop-opacity:1"/>
  </linearGradient>
 </defs>
 <g>
  <path d="m 36.31 5 c 5.859 4.062 9.688 10.831 9.688 18.5 c 0 12.426 -10.07 22.5 -22.5 22.5 c -7.669 0 -14.438 -3.828 -18.5 -9.688 c 1.037 1.822 2.306 3.499 3.781 4.969 c 4.085 3.712 9.514 5.969 15.469 5.969 c 12.703 0 23 -10.298 23 -23 c 0 -5.954 -2.256 -11.384 -5.969 -15.469 c -1.469 -1.475 -3.147 -2.744 -4.969 -3.781 z m 4.969 3.781 c 3.854 4.113 6.219 9.637 6.219 15.719 c 0 12.703 -10.297 23 -23 23 c -6.081 0 -11.606 -2.364 -15.719 -6.219 c 4.16 4.144 9.883 6.719 16.219 6.719 c 12.703 0 23 -10.298 23 -23 c 0 -6.335 -2.575 -12.06 -6.719 -16.219 z" style="opacity:0.05"/>
  <path d="m 41.28 8.781 c 3.712 4.085 5.969 9.514 5.969 15.469 c 0 12.703 -10.297 23 -23 23 c -5.954 0 -11.384 -2.256 -15.469 -5.969 c 4.113 3.854 9.637 6.219 15.719 6.219 c 12.703 0 23 -10.298 23 -23 c 0 -6.081 -2.364 -11.606 -6.219 -15.719 z" style="opacity:0.1"/>
  <path d="m 31.25 2.375 c 8.615 3.154 14.75 11.417 14.75 21.13 c 0 12.426 -10.07 22.5 -22.5 22.5 c -9.708 0 -17.971 -6.135 -21.12 -14.75 a 23 23 0 0 0 44.875 -7 a 23 23 0 0 0 -16 -21.875 z" style="opacity:0.2"/>
 </g>
 <g>
  <path d="m 18.85 1.586 c -10.222 2.34 -17.85 11.483 -17.85 22.414 0 8.853 5 16.532 12.336 20.377 14.532 -4.205 28.22 -9.298 33.473 -23.24 c -0.012 -0.094 -0.016 -0.191 -0.029 -0.285 c -7.612 -7.29 -11.392 -16.543 -27.93 -19.262" style="fill:url(#linearGradient4328);fill-opacity:1"/>
  <path d="m 46.814 21.13 l -33.479 23.25 c 3.188 1.672 6.814 2.623 10.664 2.623 c 12.703 0 23 -10.297 23 -23 c 0 -0.973 -0.068 -1.93 -0.186 -2.871 z" style="fill:url(#linearGradient4320);fill-opacity:1"/>
  <path d="m 24 1 c -1.772 0 -3.494 0.207 -5.15 0.586 l 27.93 19.262 c -1.538 -11.21 -11.147 -19.848 -22.779 -19.848 z" style="fill:url(#linearGradient4312);fill-opacity:1"/>
 </g>
 <path d="m 29 22 c 0 7 -4 10 -8 10 l -7 0 0 -20 7 0 c 4 0 8 3 8 10 m -3 0 c 0 -4 -1.95 -7 -5.2 -7 l -3.8 0 0 14 3.8 0 c 3.333 0 5.2 -3 5.2 -7 z" style="fill:#000;fill-opacity:0.098;stroke:none"/>
 <g>
  <path d="m 40.03 7.531 c 3.712 4.084 5.969 9.514 5.969 15.469 0 12.703 -10.297 23 -23 23 c -5.954 0 -11.384 -2.256 -15.469 -5.969 4.178 4.291 10.01 6.969 16.469 6.969 c 12.703 0 23 -10.298 23 -23 0 -6.462 -2.677 -12.291 -6.969 -16.469 z" style="opacity:0.1"/>
 </g>
 <path d="m 28 21 c 0 7 -4 10 -8 10 l -7 0 0 -20 7 0 c 4 0 8 3 8 10 m -3 0 c 0 -4 -1.95 -7 -5.2 -7 l -3.8 0 0 14 3.8 0 c 3.333 0 5.2 -3 5.2 -7 z" style="fill:#e6ef5d;fill-opacity:1;stroke:none"/>
</svg>
